packages/core/src/svgs/tokens/mono/SRK.svg

<svg width="24" height="24" viewBox="0 0 24 24" fill="none" xmlns="http://www.w3.org/2000/svg">
<path d="M8.87433 21.3749H2L8.87433 15.125H15.7499L8.87433 21.3749Z" fill="white"/>
<path d="M22.0001 8.875L15.75 15.1249V8.875H22.0001Z" fill="white"/>
<path d="M22.0001 2.625L15.75 8.87496V2.625H22.0001Z" fill="white"/>
<path d="M15.7496 8.875L8.87402 15.1249L8.87465 8.875H15.7496Z" fill="white"/>
<path d="M15.7504 2.625L8.87549 8.87496V2.625H15.7504Z" fill="white"/>
<path d="M8.87495 8.875L2 15.1249V8.875H8.87495Z" fill="white"/>
<path d="M22.0001 15.125L15.75 21.3749V15.125H22.0001Z" fill="white"/>
<path d="M15.7496 15.1249H8.87402L15.7496 8.875V15.1249Z" fill="white"/>
<path d="M15.7504 8.87496H8.87549L15.7504 2.625V8.87496Z" fill="white"/>
<path d="M8.87433 15.1249H2L8.87495 8.875L8.87433 15.1249Z" fill="white"/>
<path d="M8.87495 8.87496H2L8.87495 2.625V8.87496Z" fill="white"/>
<path d="M22.0001 15.1249H15.75L22.0001 8.875V15.1249Z" fill="white"/>
<path d="M15.7496 21.3749H8.87402L15.7496 15.125V21.3749Z" fill="white"/>
</svg>

<svg xmlns="http://www.w3.org/2000/svg" width="24" height="24" fill="none" viewBox="0 0 24 24">
    <path fill="#fff" d="M8.874 21.375H2l6.874-6.25h6.876zM22 8.875l-6.25 6.25v-6.25zm0-6.25-6.25 6.25v-6.25zm-6.25 6.25-6.876 6.25v-6.25zm0-6.25-6.875 6.25v-6.25z"/>
    <path fill="#fff" d="M8.875 8.875 2 15.125v-6.25zM22 15.125l-6.25 6.25v-6.25zm-6.25 0H8.874l6.876-6.25zm0-6.25H8.875l6.875-6.25zm-6.876 6.25H2l6.875-6.25zm.001-6.25H2l6.875-6.25zM22 15.125h-6.25L22 8.875zm-6.25 6.25H8.874l6.876-6.25z"/>
</svg>
